X:918
T:Wind that Shakes the Barley
R:Reel
M:C|
L:1/8
K:D
A2 AB AF ED| B BA Bc d2|A2 AB AF ED|gf ed Bc dB|
A2 AB AF ED|B2 BA Bc dB|A2 AB AF ED|gf ed B2 d2:|
|:f2 fd g2 ge|f2 fd ed BA|f2 fd g2 ge|af ed B2 de|f2 df g2 eg|
f2 fd ed BA|de fg af ba|gf ed B2 d2:|

